!!!OTL: In Festo Ascensionis Domini N J Ch
**kern
*staff1
=--
*clefC1
*k[]
00.r
=-
*k[b-]
1b-
2cc
2cc
1dd
1.cc
2b-
1a
=-
!LO:TX:Y=128:t=P
1g
1b-
2cc
2cc
1dd
=-
1cc
1.dd
2b-
1cc
=-
1dd
1.dd
2cc
2b-
2cc
=-
!!linebreak:original
1dd
1cc
1b-
2cc
2a
=-
!LO:TX:Y=-32:t=P
!LO:TX:Y=-31:t=P
1b-
1cc
1b-
2a
2a
=-
1b-
1cc
1dd
1.dd
2dd
2cc
2b-
=-
!LO:TX:Y=-32:t=P
!LO:TX:Y=-32:t=P
1g
1a
1g
1b-
1.cc
2cc
=-
1dd
0ee-
0dd
=-
!!linebreak:original
00.r
=-
00.r
=-
1cc
2dd
2cc
2b-
2a
2g
2a
=-
1a
2b-
2cc
2dd
2cc
1b-
=-
1cc
1dd
1b-
0cc
0b-
=-
!!linebreak:original
*k[]
1f
1g
=-
!LO:TX:Y=-32:t=P
1a
1g
=-
1a
2g
2f
=-
!LO:TX:Y=-33:t=P
1e
1d
=-
2f
2f
2g
2g
=-
!LO:TX:Y=-32:t=P
1a
1g
=-
!LO:TX:Y=-32:t=P
1a
2b
2cc
=-
!LO:TX:Y=-32:t=P
2dd
2b
2cc
2cc
=-
2cc
2cc
0dd
=-=
*-
!!title: @{OTL}, @{GTL}, ed. @{ENC}
!!!pag:
!!!GTL: Hymnbook C
!!!EFL: 
!!!YEM: Creative Commons CC/BY/NC/SA 4.0
!!!ENC: Marcin Konik
!!!END: 2015-0m-dd
!!!EED: Marcin Konik
!!!EEV: 
!!!ONB: Encoded in vim by Marcin Konik
!!!CharacterEncoding: utf-8
!!!RDF**kern: l=long note in original notation
!!!RDF**kern: i=editorial accidental
!!muse2ps: z14jc180F
!!!COM: Anonim
!!!CDT: [?]
!!!TXO: Polish
!!!ODT: 
!!!GTL: Hymnbook C
!!!ARL: Opactwo św. Wojciecha, Staniątki 
!!!voices:	1
